svgs/solid/panel-fire.svg

<svg xmlns="http://www.w3.org/2000/svg" viewBox="0 0 640 512"><!--! Font Awesome Pro 6.2.0 by @fontawesome - https://fontawesome.com License - https://fontawesome.com/license (Commercial License) Copyright 2022 Fonticons, Inc. --><path d="M0 96C0 60.7 28.7 32 64 32H384c35.3 0 64 28.7 64 64v32.2c-12.6-1.2-25.5 2.7-35.5 11.7c-9.9 8.9-19.4 18.1-28.5 27.5V128c0-17.7-14.3-32-32-32H96c-17.7 0-32 14.3-32 32v64c0 17.7 14.3 32 32 32H337.5c-4.4 6.2-8.5 12.5-12.3 18.7c-10.9 17.6-20.5 36.4-27.2 55.4c-3-1.4-6.4-2.1-9.9-2.1c-13.3 0-24 10.7-24 24s10.7 24 24 24l.2 0c-.1 2-.2 4.1-.2 6.1c0 49.3 18.6 95.2 49.6 129.9H64c-35.3 0-64-28.7-64-64V96zM120 320c0-13.3-10.7-24-24-24s-24 10.7-24 24s10.7 24 24 24s24-10.7 24-24zm72 24c13.3 0 24-10.7 24-24s-10.7-24-24-24s-24 10.7-24 24s10.7 24 24 24zM453.5 163.6c19.7 17.8 38.2 37 55.5 57.7c7.9-9.9 16.8-20.7 26.5-29.5c5.6-5.1 14.4-5.1 20 0c24.7 22.7 45.6 52.7 60.4 81.1c14.5 28 24.2 58.8 24.2 79c0 87.8-71.3 159.8-160 159.8c-89.7 0-160-72.1-160-159.8c0-26.4 12.7-60.7 32.4-92.6c20-32.4 48.1-66.1 81.4-95.8c2.8-2.5 6.4-3.8 10-3.7c3.5 0 7 1.3 9.8 3.8zM530 432.9c30-21 38-63 20-96c-2-4-4-8-7-12l-36 42s-58-74-62-79c-30 37-45 58-45 82c0 49 36 78 81 78c18 0 34-5 49-15z"/></svg>

<svg xmlns="http://www.w3.org/2000/svg" viewBox="0 0 640 512"><!--! Font Awesome Pro 6.1.2 by @fontawesome - https://fontawesome.com License - https://fontawesome.com/license (Commercial License) Copyright 2022 Fonticons, Inc. --><path d="M0 96C0 60.65 28.65 32 64 32H384C419.3 32 448 60.65 448 96V128.2C435.4 127 422.5 130.9 412.5 139.9C402.5 148.7 393 157.9 384 167.4V128C384 110.3 369.7 96 352 96H96C78.33 96 64 110.3 64 128V192C64 209.7 78.33 224 96 224H337.5C333.1 230.2 328.1 236.5 325.2 242.7C314.3 260.3 304.7 279.2 297.9 298.1C294.9 296.8 291.5 296 288 296C274.7 296 264 306.7 264 320C264 333.3 274.7 344 288 344L288.2 344C288.1 346 288 348.1 288 350.1C288 399.4 306.6 445.3 337.6 480H64C28.65 480 0 451.3 0 416V96zM96 296C82.75 296 72 306.7 72 320C72 333.3 82.75 344 96 344C109.3 344 120 333.3 120 320C120 306.7 109.3 296 96 296zM192 344C205.3 344 216 333.3 216 320C216 306.7 205.3 296 192 296C178.7 296 168 306.7 168 320C168 333.3 178.7 344 192 344zM509 221.3C516.9 211.5 525.8 200.6 535.5 191.8C541.1 186.7 549.9 186.7 555.5 191.9C580.2 214.6 601.1 244.5 615.8 273C630.4 301.1 640 329.8 640 349.9C640 437.8 568.7 511.9 480 511.9C390.3 511.9 320 437.7 320 349.9C320 323.5 332.7 291.3 352.4 259.4C372.4 227 400.5 193.3 433.8 163.6C439.4 158.6 447.1 158.6 453.5 163.6C473.3 181.4 491.8 200.6 509 221.3V221.3zM550 336.9C548 332.9 546 328.9 543 324.9L507 366.9C507 366.9 448.1 292.9 444.1 287.9C415 324.9 400 345.9 400 369.9C400 418.9 436 447.9 480.1 447.9C499 447.9 515 442.9 530 432.9C560 411.9 568 369.9 550 336.9z"/></svg>
